icons/Note_filled.svg

<svg width="24" height="24" viewBox="0 0 24 24" fill="none" xmlns="http://www.w3.org/2000/svg">
<path fill-rule="evenodd" clip-rule="evenodd" d="M3.25,4.99994c0,-0.9665 0.78351,-1.75 1.75001,-1.75l13.99999,0.00005c0.9665,0.00001 1.75,0.78351 1.75,1.75v7.25001h-6.75c-0.9665,0 -1.75,0.7835 -1.75,1.75v6.75h-7.25c-0.9665,0 -1.75,-0.7835 -1.75,-1.75zM13.75,14c0,-0.1381 0.1119,-0.25 0.25,-0.25h6.3066c-0.0223,0.025 -0.0454,0.0494 -0.0692,0.0732l-6.4142,6.4142c-0.0238,0.0238 -0.0482,0.0469 -0.0732,0.0691z" fill="#002B51"/>
</svg>

<svg width="24" height="24" viewBox="0 0 24 24" fill="none" xmlns="http://www.w3.org/2000/svg">
<path fill-rule="evenodd" clip-rule="evenodd" d="M3.25 4.99994C3.25 4.03344 4.03351 3.24994 5.00001 3.24994L19 3.24999C19.9665 3.25 20.75 4.0335 20.75 4.99999V12.25H14C13.0335 12.25 12.25 13.0335 12.25 14V20.75H5C4.0335 20.75 3.25 19.9665 3.25 19V4.99994ZM13.75 20.3065C13.775 20.2843 13.7994 20.2612 13.8232 20.2374L20.2374 13.8232C20.2612 13.7994 20.2843 13.775 20.3066 13.75H14C13.8619 13.75 13.75 13.8619 13.75 14V20.3065Z" fill="#002B51"/>
</svg>
